X:1
T:Miserere mei - Handl
T:#
%%score 1 2 3
L:1/8
Q:1/4=200
M:none
K:C
V:1 treble nm="Soprano" snm="S"
V:2 treble nm="Alto" snm="A"
V:3 treble-8 nm="Tenor" snm="T"
V:1
"^Miserere mei""^Jacob Handl\n(1550-1591)""^Psalm 51 (50)""^Chorus I" E8 ^G4 G4 | ^G4 G4 G4 A4- | %2
w: Mi- se- re-|re me- i De\-|
 A4 ^G4 z4 A4 | B4 B4 B8 | B4 c4 B4 A4 | ^G4 A4 G8 | A16 | ^G16 ||[M:4/2]"^Chorus II" ^G8 G4 G4 | %9
w: * us, se-|cun- dum ma-|gnam mi- se- ri-|cor- di- am|tu-|am.|Et se- cun-|
 ^G4 A4 B4 B4- | B4 B4 B4 c4 | c4 B8 B4 | B4 A8 ^G4 | A8 ^G8 | z4 A4 B4 B4 | B4 B4 A8 | B8 c8 | %17
w: dum mul- ti- tu\-|* di- nem mi-|se- ra- ti-|o- num tu-|a- rum:|de- le i-|ni- qui- ta-|tem me-|
 B16 ||"^Chorus I" ^G12 G4 | ^G4 G8 G4 | A4 B8 B4 | c4 B4 A4 ^G4 | A8 ^G8 | z4 A4 B4 B4 | %24
w: am.|Am- pli-|us la- va|me ab i-|ni- qui- ta- te|me- a:|et a pec-|
 c4 B4 A8 | G4 F8 F4 | E16 ||"^Chorus II" G12 G4 | G4 G4 G4 G4 | A4 G4 F8 | E4 E4 G4 G4 | A8 G8 | %32
w: ca- to me-|o mun- da|me.|Quo- ni-|am i- ni- qui-|ta- tem me-|am e- go co-|gno- sco:|
 z4 c4 c4 B4- | B4 A8 G4 | A4 ^G8 G4 | A4 =G4 ^F8 | G16 ||"^Chorus I" G8 G4 G4- | G4 G4 G4 A4- | %39
w: et pec- ca\-|* tum me-|um con- tra|me est sem-|per.|Ti- bi so\-|* li pec- ca\-|
 A4 G4 z4 B4 | B4 B4 B4 B4 | B4 A8 ^G4 | z4 c4 c4 c4 | B4 c8 B4 | z4 e4 d4 c4- | c2 B2 A4 ^G4 A4 | %46
w: * vi, et|ma- lum co- ram|te fe- ci:|ut ju- sti-|fi- ce- ris|in ser- mon\-|* ni- bus tu- is,|
 z4 E4 F4 E4 | z4 B8 c4- | c4 B4 A8 | ^G16 ||"^Chorus II" E8 E4 ^G4- | G4 ^G4 A4 B4 | c4 B4 A6 A2 | %53
w: et vin- cas|cum ju\-|* di- ca-|ris.|Ec- ce e\-|* nim in i-|ni- qui- ta- ti-|
 G4 G4 A4 G4 | G8 z4 B4- | B4 B4 B4 c4- | c4 B8 A4 | G8 F8 | E8 D8- | D4 ^C4 D8 | E16 || %61
w: bus con- ce- ptus|sum: et|* in pec- ca\-|* tis con-|ce- pit|me ma\-|* ter me-|a.|
"^Chorus I" G8 G4 G4- | G4 G4 A4 G4 | F8 E4 c4- | c4 B4 A8 | ^G8 z4 A4 | B8 B4 B4 | B4 c8 B4 | %68
w: Ec- ce e\-|* nim ve- ri-|ta- tem di\-|* le- xi-|sti: in-|cer- ta et|oc- cul- ta|
 A4 ^G4 A6 A2 | ^G4 A4 B4 c4- | c4 c4 c4 B4- | B4 B4 A8 | ^G16 ||"^Chorus II" E8 ^G4 G4 | %74
w: sa- pi- en- ti-|ae tu- ae ma\-|* ni- fe- sta\-|* sti mi-|hi.|A- sper- ges|
 ^G4 G8 G4 | A4 A8 ^G4 | A4 c8 B4 | A8 ^G8 | z4 A4 B8 | B4 B8 B4 | c4 B4 A4 G4 | F4 F4 E8 | E16 || %83
w: me Do- mi-|ne hys- so-|po, et mun-|da- bor:|la- va-|bis me, et|su- per ni- vem|de- al- ba-|bor.|
"^Chorus I" E8 E4 E4 | E4 ^F8 G4 | z4 G4 G4 A4- | A2 G2 G2 E2 ^G2 A4 B2 | c4 z2 B2 B2 B2 B4 | %88
w: Au- di- tu-|i me- o|da- bis gau\-|* di- um et lae- ti- ti-|am: et ex- sul- ta-|
 c4 A4 A4 G4 | F4 E8 D4 | E16 ||"^Chorus II" E8 ^G8 | ^G4 G6 G2 G4 | A8 G4 c4 | B4 A8 ^G4 | %95
w: bunt os- sa hu-|mi- li- a-|ta.|A- ver-|te fa- ci- em|tu- am a|pec- ca- tis|
 A8 ^G8 | z4 A4 B8 | B4 B8 B4 | B4 c8 B4 | A16 | ^G4 (A8 G4) | A16 ||"^Chorus I" E8 ^F8 | %103
w: me- is:|et o-|mnes i- ni-|qui- ta- tes|me-|as de\- *|le.|Cor mun-|
 G4 G8 G4 | A4 A8 A4 | ^G8 z4 A4 | B6 B2 B4 c4- | c4 B4 A4 ^G4 | A4 B4 B4 c4- | c2 B2 A8 ^G4 | %110
w: dum cre- a|in me, De-|us: et|spi- ri- tum re\-|* ctum in- no-|va in vi- sce\-|* ri- bus me-|
 A16 ||"^Chorus II" A8 ^G4 G4- | G2 ^G2 G4 A4 B4 | c6 c2 B4 A4- | A4 ^G4 z4 A4 | B6 B2 B4 c4- | %116
w: is.|Ne pro- ji\-|* ci- as me a|fa- ci- e tu\-|* a: et|spi- ri- tum san\-|
 c4 B8 A4 | G4 G8 F4 | E4 D4 E8 | E16 ||"^Chorus I" A8 ^G4 G4 | ^G4 A4 B6 B2 | B4 c4 c4 B4- | %123
w: * ctum tu-|um ne au-|fe- ras a|me.|Red- de mi-|hi lae- ti- ti-|am sa- lu- ta\-|
 B4 B4 A8 | ^G8 z4 A4 | B6 B2 B4 c4- | c2 c2 c4 B4 A4 | (^G4 A8) G4 | A16 ||"^Chorus II" E8 ^F8 | %130
w: * ris tu-|i: et|spi- ri- tu prin\-|* ci- pa- li con-|fir\- * ma|me.|Do- ce-|
 G4 G4 A8 | A4 c8 B4- | B4 A8 ^G4 | z4 A4 B6 B2 | B4 c4 B4 A4- | A4 ^G4 A8 | ^G16 || %137
w: bo i- ni-|quos vi- as|* tu- as:|et im- pi-|i ad te con\-|* ver- ten-|tur.|
"^Chorus I" ^G6 G2 G4 G4 | A4 B4 c4 B4 | ^c4 d8 c4 | z4 A4 ^G4 A4 | c4 B4 A8 | ^G8 z4 A4 | %143
w: Li- be- ra me|de san- gui- ni-|bus, De- us,|De- us sa-|lu- tis me-|ae: et|
 B4 B4 B4 c4 | B4 A4 A8 | ^G4 A8 B4- | B2 B2 c8 A4 | ^G16 ||"^Chorus II" ^G6 G2 G4 A4- | %149
w: ex- sul- ta- bit|lin- gua me-|a ju- sti\-|* ti- am tu-|am.|Do- mi- ne, la\-|
 A2 B2 c4 B8 | A4 A4 A4 ^G4 | A8 z4 A4 | B4 B8 B4 | B4 c8 B4- | B4 A8 G4 | F4 F4 E8 | E16 || %157
w: * bi- a me-|a a- pe- ri-|es: et|os me- um|an- nun- ti\-|* a- bit|lau- dem tu-|am.|
"^Chorus I" A12 ^G4 | ^G4 A4 B6 B2 | B4 c4 B4 B4 | A6 A2 A4 G4 | F8 E8 | z4 G6 G2 G4 | A4 G4 F8 | %164
w: Quo- ni-|am si vo- lu-|is- ses sa- cri-|fi- ci- um, de-|dis- sem:|u- ti- que|ho- lo- cau-|
 E4 A4 c4 B4 | A12 A4 | ^G16 ||"^Chorus II" E8 ^G4 G4- | G2 ^G2 G4 A8 | ^G4 A6 A2 A4 | B4 c8 B4- | %171
w: stis non de- le-|cta- be-|ris.|Sa- cri- fi\-|* ci- um De-|o spi- ri- tus|con- tri- bu\-|
 B4 A8 ^G4 | z4 A4 B4 B4- | B4 B4 z4 c4 | C4 D8 D4 | E8 D4 (d4- | d2 c2 B8) A4 | c4 B4 A6 A2 | %178
w: * la- tus:|cor con- tri\-|* tum et|hu- mi- li-|a- tum, De\-|* * * us,|non de- spi- ci-|
 ^G16 ||"^Chorus I" E8 ^F8 | G4 G4 A6 A2 | G4 B4 B4 B4 | B4 B4 c4 B4- | B4 A8 ^G4 | A8 ^G8 | %185
w: es.|Be- ni-|gne fac, Do- mi-|ne, in bo- na|vo- lun- ta- te|* tu- a|Si- on:|
 z4 A4 ^G4 G4 | ^G4 A8 =G4 | F8 E8 | ^G8 A6 A2 | ^G16 ||"^Chorus II" E8 ^F8 | G4 A8 G4 | %192
w: ut ae- di-|fi- cen- tur|mu- ri|Je- ru- sa-|lem.|Tunc ac-|ce- pta- bis|
 z4 B4 B4 B4- | B2 B2 B4 c4 B4- | B4 A4 ^G8 | z4 A4 B6 B2 | c4 B4 z4 G4 | G6 G2 A4 G4 | z4 E8 E4 | %199
w: sa- cri- fi\-|* ci- um ju- sti\-|* ti- ae,|ob- la- ti-|o- nes, et|ho- lo- cau- sta:|tunc im-|
 F8 E4 E4 | F4 E4 F4 E4 | F8 E8 |[Q:1/4=191] (A16 |[Q:1/4=178] ^G12)[Q:1/4=171] G4 | %204
w: po- nent su-|per al- ta- re|tu- um|vi\-|* tu-|
[Q:1/4=170] ^G16 |] %205
w: los.|
V:2
 B,8 E4 E4 | E4 E4 E4 E4- | E4 E4 z4 E4 | G4 G4 G8 | G4 G4 G4 E4 | E4 D4 E8- | E4 (E8 D4) | E16 || %8
w: Mi- se- re-|re me- i De\-|* us, se-|cun- dum ma-|gnam mi- se- ri-|cor- di- am|* tu\- *|am.|
[M:4/2] E8 E4 E4 | E4 E4 G4 G4- | G4 G4 G4 G4 | G4 G8 G4 | G4 E8 E4- | E4 D4 E8 | z4 E4 G4 G4 | %15
w: Et se- cun-|dum mul- ti- tu\-|* di- nem mi-|se- ra- ti-|o- num tu\-|* a- rum:|de- le i-|
 G4 G4 E8 | E8 E8 | E16 || E12 E4 | E4 E8 E4 | E4 G8 G4 | G4 G4 E4 E4- | E4 D4 E8 | z4 E4 G4 G4 | %24
w: ni- qui- ta-|tem me-|am.|Am- pli-|us la- va|me ab i-|ni- qui- ta- te|* me- a:|et a pec-|
 G4 G4 F8 | E4 D8 D4 | B,16 || E12 E4 | E4 E4 E4 E4 | F4 E4 D8 | B,4 ^C4 D4 E4 | F8 E8 | %32
w: ca- to me-|o mun- da|me.|Quo- ni-|am i- ni- qui-|ta- tem me-|am e- go co-|gno- sco:|
 z4 G4 G4 G4- | G4 E4 D8 | E4 E8 E4 | E4 E4 D8 | E16 || E8 E4 E4- | E4 E4 E4 F4- | F4 E4 z4 G4 | %40
w: et pec- ca\-|* tum me-|um con- tra|me est sem-|per.|Ti- bi so\-|* li pec- ca\-|* vi, et|
 G4 G4 G4 G4 | G4 E8 E4 | z4 G4 G4 G4 | G4 G8 G4 | z4 G4 G4 G4- | G2 G2 E4 E4 E4 | z4 ^C4 D4 C4 | %47
w: ma- lum co- ram|te fe- ci:|ut ju- sti-|fi- ce- ris|in ser- mon\-|* ni- bus tu- is,|et vin- cas|
 z4 E8 E4- | E4 E4 E8 | E16 || B,8 B,4 E4- | E4 E4 E4 E4 | E4 E4 C6 D2 | E4 E4 F4 D4 | E8 z4 G4- | %55
w: cum ju\-|* di- ca-|ris.|Ec- ce e\-|* nim in i-|ni- qui- ta- ti-|bus con- ce- ptus|sum: et|
 G4 G4 G4 G4- | G4 G4 E8 | E8 C8 | C8 A,8 | A,12 B,4 | C16 || E8 E4 E4- | E4 E4 F4 E4 | %63
w: * in pec- ca\-|* tis con-|ce- pit|me ma-|ter me-|a.|Ec- ce e\-|* nim ve- ri-|
 D8 B,4 E4- | E4 E4 E8 | E8 z4 E4 | G8 G4 G4 | G4 G8 G4 | E4 E4 C6 D2 | E4 E4 G4 G4- | %70
w: ta- tem di\-|* le- xi-|sti: in-|cer- ta et|oc- cul- ta|sa- pi- en- ti-|ae tu- ae ma\-|
 G4 G4 G4 G4- | G4 G4 E8 | E16 || B,8 E4 E4 | E4 E8 E4 | E4 E4 E8 | E8 E4 E4 | E8 E8 | z4 E4 G8 | %79
w: * ni- fe- sta\-|* sti mi-|hi.|A- sper- ges|me Do- mi-|ne hys- so-|po, et mun-|da- bor:|la- va-|
 G4 G8 G4 | G4 G4 E4 E4 | C4 D4 B,8 | ^C16 || ^C8 C4 C4 | ^C4 D8 E4 | z4 E4 E4 F4- | %86
w: bis me, et|su- per ni- vem|de- al- ba-|bor.|Au- di- tu-|i me- o|da- bis gau\-|
 F2 D2 E2 E2 E2 E4 G2 | G4 z2 G2 G2 G2 G4 | G4 F4 F4 E4 | D4 B,4 A,8 | B,16 || B,8 E8 | %92
w: * di- um et lae- ti- ti-|am: et ex- sul- ta-|bunt os- sa hu-|mi- li- a-|ta.|A- ver-|
 E4 E6 E2 E4 | F8 E4 G4 | G4 E8 E4- | E4 D4 E8 | z4 E4 G8 | G4 G8 G4 | G4 G8 G4 | F8 F8 | E16 | %101
w: te fa- ci- em|tu- am a|pec- ca- tis|* me- is:|et o-|mnes i- ni-|qui- ta- tes|me- as|de-|
 E16 || ^C8 D8 | E4 D8 D4 | F4 F4 E8 | E8 z4 E4 | G6 G2 G4 G4- | G4 G4 E4 E4 | E4 G4 G4 G4- | %109
w: le.|Cor mun-|dum cre- a|in me, De-|us: et|spi- ri- tum re\-|* ctum in- no-|va in vi- sce\-|
 G2 G2 E4 E8 | E16 || E8 E4 E4- | E2 E2 E4 E4 G4 | G6 G2 G4 E4 | E8 z4 E4 | G6 G2 G4 G4- | %116
w: * ri- bus me-|is.|Ne pro- ji\-|* ci- as me a|fa- ci- e tu-|a: et|spi- ri- tum san\-|
 G4 G4 E8 | E4 E8 D4 | B,4 A,4 B,8 | ^C16 || E8 E4 E4 | E4 E4 G6 G2 | G4 G4 G4 G4- | G4 G4 E8 | %124
w: * ctum tu-|um ne au-|fe- ras a|me.|Red- de mi-|hi lae- ti- ti-|am sa- lu- ta\-|* ris tu-|
 E8 z4 E4 | G6 G2 G4 G4- | G2 G2 G4 G4 E4 | E8 E8 | E16 || ^C8 D8 | E4 D4 F8 | F4 G8 G4 | E8 E8 | %133
w: i: et|spi- ri- tu prin\-|* ci- pa- li con-|fir- ma|me.|Do- ce-|bo i- ni-|quos vi- as|tu- as:|
 z4 E4 G6 G2 | G4 G4 G4 E4- | E4 E8 D4 | E16 || E6 E2 E4 E4 | E4 E4 E6 E2 | E4 F8 E4 | E8 E4 E4 | %141
w: et im- pi-|i ad te con\-|* ver- ten-|tur.|Li- be- ra me|de san- gui- ni-|bus, De- us,|De- us sa-|
 E4 E4 E8 | E8 z4 E4 | G4 G4 G4 G4 | G4 E4 F8 | E4 E8 G4- | G2 G2 E8 D4 | E16 || E6 E2 E4 E4- | %149
w: lu- tis me-|ae: et|ex- sul- ta- bit|lin- gua me-|a ju- sti\-|* ti- am tu-|am.|Do- mi- ne, la\-|
 E2 E2 E4 E8 | C4 F4 E6 E2 | E8 z4 E4 | G4 G8 G4 | G4 G8 G4 | E8 E8 | C4 D4 B,8 | ^C16 || E12 E4 | %158
w: * bi- a me-|a a- pe- ri-|es: et|os me- um|an- nun- ti-|a- bit|lau- dem tu-|am.|Quo- ni-|
 E4 E4 G6 G2 | G4 G4 G4 G4 | F6 F2 F4 E4 | D8 B,8 | z4 E6 E2 E4 | F4 E4 D8 | ^C4 E4 E4 E4 | %165
w: am si vo- lu-|is- ses sa- cri-|fi- ci- um, de-|dis- sem:|u- ti- que|ho- lo- cau-|stis non de- le-|
 E12 E4 | E16 || B,8 E4 E4- | E2 E2 E4 E8 | E4 E6 E2 E4 | G4 G8 G4 | E8 E8 | z4 E4 G4 G4- | %173
w: cta- be-|ris.|Sa- cri- fi\-|* ci- um De-|o spi- ri- tus|con- tri- bu-|la- tus:|cor con- tri\-|
 G4 G4 z4 G,4 | G,4 B,8 B,4 | C8 (B,6 A,2 | G,4) G8 E4 | E4 E4 E6 E2 | E16 || B,8 D8 | %180
w: * tum et|hu- mi- li-|a- tum, *|* De- us,|non de- spi- ci-|es.|Be- ni-|
 E4 E4 F6 F2 | E4 G4 G4 G4 | G4 G4 G4 G4 | E8 E4 (E4- | E4 D4) E8 | z4 E4 E4 E4 | E4 E8 E4 | %187
w: gne fac, Do- mi-|ne, in bo- na|vo- lun- ta- te|tu- a Si\-|* * on:|ut ae- di-|fi- cen- tur|
 D8 ^C8 | E8 E6 E2 | E16 || B,8 D8 | E4 F8 E4 | z4 G4 G4 G4- | G2 G2 G4 G4 G4- | G4 E4 E8 | %195
w: mu- ri|Je- ru- sa-|lem.|Tunc ac-|ce- pta- bis|sa- cri- fi\-|* ci- um ju- sti\-|* ti- ae,|
 z4 E4 G6 G2 | G4 G4 z4 E4 | E6 E2 F4 E4 | z4 C8 C4 | D8 ^C4 C4 | D4 ^C4 D4 E4 | D8 ^C8 | E12 E4 | %203
w: ob- la- ti-|o- nes, et|ho- lo- cau- sta:|tunc im-|po- nent su-|per al- ta- re|tu- um|vi- tu-|
 E16- | E16 |] %205
w: los.||
V:3
 E8 B4 B4 | B4 B4 B4 c4- | c4 B4 z4 ^c4 | d4 d4 d8 | d4 e4 d4 c4 | B4 A4 B8 | (c6 B2 A8) | B16 || %8
w: Mi- se- re-|re me- i De\-|* us, se-|cun- dum ma-|gnam mi- se- ri-|cor- di- am|tu\- * *|am.|
[M:4/2][K:treble-8] B8 B4 B4 | B4 ^c4 d4 d4- | d4 d4 d4 e4 | e4 d8 d4 | d4 c8 B4 | A8 B8 | %14
w: Et se- cun-|dum mul- ti- tu\-|* di- nem mi-|se- ra- ti-|o- num tu-|a- rum:|
 z4 ^c4 d4 d4- | d4 e4 c4 A4- | A4 ^G4 A8 | ^G16 || B12 B4 | B4 B8 B4 | ^c4 d8 d4 | e4 d4 c4 B4 | %22
w: de- le i\-|* ni- qui- ta\-|* tem me-|am.|Am- pli-|us la- va|me ab i-|ni- qui- ta- te|
 A8 B8 | z4 ^c4 d4 d4 | e4 e4 c8 | c4 A8 A4 | ^G16 || c12 c4 | c4 c4 c4 c4 | c4 c4 A8 | %30
w: me- a:|et a pec-|ca- to me-|o mun- da|me.|Quo- ni-|am i- ni- qui-|ta- tem me-|
 ^G4 A4 B4 c4 | c8 c8 | z4 e4 e4 d4- | d4 ^c4 d8 | =c4 B8 B4 | c4 c4 A8 | c16 || c8 c4 c4- | %38
w: am e- go co-|gno- sco:|et pec- ca\-|* tum me-|um con- tra|me est sem-|per.|Ti- bi so\-|
 c4 c4 c4 c4- | c4 c4 z4 d4 | d4 d4 d4 d4 | e4 c8 B4 | z4 e4 e4 e4 | d4 e8 d4 | z4 c4 B4 e4- | %45
w: * li pec- ca\-|* vi, et|ma- lum co- ram|te fe- ci:|ut ju- sti-|fi- ce- ris|in ser- mon\-|
 e2 d2 c4 B4 A4 | z4 A4 A4 A4 | z4 ^G8 A4 | E8 c8 | B16 || E8 ^G4 B4- | B4 B4 c4 B4 | %52
w: * ni- bus tu- is,|et vin- cas|cum ju-|di- ca-|ris.|Ec- ce e\-|* nim in i-|
 A4 ^G4 A6 A2 | B4 c4 c4 B4 | c8 z4 d4- | d4 d4 d4 e4- | e4 d4 c8 | B8 A8 | G8 F8 | E8 ^F8 | G16 || %61
w: ni- qui- ta- ti-|bus con- ce- ptus|sum: et|* in pec- ca\-|* tis con-|ce- pit|me ma-|ter me-|a.|
 c8 c4 c4- | c4 c4 c4 c4 | A8 G4 A4- | A4 B4 c8 | B8 z4 ^c4 | d8 d4 d4 | d4 e8 d4 | c4 B4 A6 A2 | %69
w: Ec- ce e\-|* nim ve- ri-|ta- tem di\-|* le- xi-|sti: in-|cer- ta et|oc- cul- ta|sa- pi- en- ti-|
 B4 ^c4 d4 e4- | e4 e4 e4 d4- | d4 e4 c8 | B16 || ^G8 B4 B4 | B4 B8 B4 | c4 A4 B8 | c8 A4 B4 | %77
w: ae tu- ae ma\-|* ni- fe- sta\-|* sti mi-|hi.|A- sper- ges|me Do- mi-|ne hys- so-|po, et mun-|
 c8 B8 | z4 ^c4 d8 | d4 d8 d4 | e4 d4 c4 B4 | A4 A8 ^G4 | A16 || A8 A4 A4 | A4 A8 c4 | %85
w: da- bor:|la- va-|bis me, et|su- per ni- vem|de- al- ba-|bor.|Au- di- tu-|i me- o|
 z4 c4 c4 c4- | c2 B2 B2 ^G2 B2 ^c4 d2 | e4 z2 d2 d2 d2 d4 | e4 c4 c4 c4 | A4 ^G4 A8 | ^G16 || %91
w: da- bis gau\-|* di- um et lae- ti- ti-|am: et ex- sul- ta-|bunt os- sa hu-|mi- li- a-|ta.|
 ^G8 B8 | B4 B6 B2 B4 | d8 B4 e4 | d4 c8 B4 | A8 B8 | z4 ^c4 d8 | d4 d8 d4 | d4 e8 e4 | (c8 d6 c2 | %100
w: A- ver-|te fa- ci- em|tu- am a|pec- ca- tis|me- is:|et o-|mnes i- ni-|qui- ta- tes|me\- * *|
 B4) c4 B8 | A16 || A8 A8 | c4 B8 B4 | c4 d4 c8 | B8 z4 ^c4 | d6 d2 d4 e4- | e4 d4 c4 B4 | %108
w: * as de-|le.|Cor mun-|dum cre- a|in me, De-|us: et|spi- ri- tum re\-|* ctum in- no-|
 ^c4 d4 d4 e4- | e2 d2 c4 B8 | A16 || c8 B4 B4- | B2 B2 B4 ^c4 d4 | e6 e2 d4 c4 | B8 z4 ^c4 | %115
w: va in vi- sce\-|* ri- bus me-|is.|Ne pro- ji\-|* ci- as me a|fa- ci- e tu-|a: et|
 d6 d2 d4 e4- | e4 d4 c8 | B4 c8 A4 | ^G4 A8 G4 | A16 || c8 B4 B4 | B4 ^c4 d6 d2 | d4 e4 e4 d4- | %123
w: spi- ri- tum san\-|* ctum tu-|um ne au-|fe- ras a|me.|Red- de mi-|hi lae- ti- ti-|am sa- lu- ta\-|
 d4 e4 c8 | B8 z4 ^c4 | d6 d2 d4 e4- | e2 e2 e4 d4 c4 | (B4 c4) B8 | A16 || A8 A8 | c4 B4 c8 | %131
w: * ris tu-|i: et|spi- ri- tu prin\-|* ci- pa- li con-|fir\- * ma|me.|Do- ce-|bo i- ni-|
 c4 e8 d4 | c8 B8 | z4 ^c4 d6 d2 | d4 e4 d4 c4- | c4 B4 A8 | B16 || B6 B2 B4 B4 | c4 B4 A4 ^G4 | %139
w: quos vi- as|tu- as:|et im- pi-|i ad te con\-|* ver- ten-|tur.|Li- be- ra me|de san- gui- ni-|
 A4 A8 A4 | c8 B4 c4 | A4 B4 c8 | B8 z4 ^c4 | d4 d4 d4 e4 | d4 ^c4 d8 | B4 ^c8 d4- | d2 d2 e4 A8 | %147
w: bus, De- us,|De- us sa-|lu- tis me-|ae: et|ex- sul- ta- bit|lin- gua me-|a ju- sti\-|* ti- am tu-|
 B16 || B6 B2 B4 c4- | c2 B2 A8 ^G4 | A4 d4 B6 B2 | A8 z4 ^c4 | d4 d8 d4 | d4 e8 d4 | c8 B8 | %155
w: am.|Do- mi- ne, la\-|* bi- a me-|a a- pe- ri-|es: et|os me- um|an- nun- ti-|a- bit|
 A4 A8 ^G4 | A16 || c12 B4 | B4 ^c4 d6 d2 | d4 e4 d4 e4 | c6 c2 c4 c4 | A8 ^G8 | z4 c6 c2 c4 | %163
w: lau- dem tu-|am.|Quo- ni-|am si vo- lu-|is- ses sa- cri-|fi- ci- um, de-|dis- sem:|u- ti- que|
 c4 c4 A8 | A4 c4 A4 B4 | c12 c4 | B16 || ^G8 B4 B4- | B2 B2 B4 c8 | B4 ^c6 c2 c4 | d4 e8 d4 | %171
w: ho- lo- cau-|stis non de- le-|cta- be-|ris.|Sa- cri- fi\-|* ci- um De-|o spi- ri- tus|con- tri- bu-|
 c8 B8 | z4 ^c4 d4 d4- | d4 d4 z4 e4 | E4 G8 G4 | G8 G8 | (B6 c2 d4) c4 | A4 B4 c6 c2 | B16 || %179
w: la- tus:|cor con- tri\-|* tum et|hu- mi- li-|a- tum,|De\- * * us,|non de- spi- ci-|es.|
 ^G8 A8 | c4 c4 c6 c2 | c4 d4 d4 d4 | d4 d4 e4 d4 | c8 B8 | A8 B8 | z4 c4 B4 B4 | B4 c8 c4 | %187
w: Be- ni-|gne fac, Do- mi-|ne, in bo- na|vo- lun- ta- te|tu- a|Si- on:|ut ae- di-|fi- cen- tur|
 A8 A8 | B8 c6 c2 | B16 || ^G8 A8 | c4 c8 c4 | z4 d4 d4 d4- | d2 d2 d4 e4 d4- | d4 c4 B8 | %195
w: mu- ri|Je- ru- sa-|lem.|Tunc ac-|ce- pta- bis|sa- cri- fi\-|* ci- um ju- sti\-|* ti- ae,|
 z4 ^c4 d6 d2 | e4 d4 z4 c4 | c6 c2 c4 c4 | z4 G8 A4 | A8 A4 A4 | A4 A4 A4 A4 | A8 A8 | (c16 | %203
w: ob- la- ti-|o- nes, et|ho- lo- cau- sta:|tunc im-|po- nent su-|per al- ta- re|tu- um|vi\-|
 B12) B4 | B16 |] %205
w: * tu-|los.|

